X:1
T:Maryland Heights, CMD
T:Maryland Heights, CMD
T:Joshua James Excell, 1882
T:Public Domain Courtesy of the Cyber Hymnal™
C:Joshua James Excell, 1882
Z:Public Domain
Z:Courtesy of the Cyber Hymnal™
%%score ( 1 2 ) ( 3 4 )
L:1/8
Q:1/4=103
M:4/4
K:G
V:1 treble 
V:2 treble 
V:3 bass 
V:4 bass 
V:1
 (G>A) | [GB]2 [GB]2 [GB]2 (c>B) | [GB]2 [FA]2 [FA]2 (F>G) | [DA]2 [DA]2 [DA]2 (B>A) | %4
 (G4 D2) (G>A) | [GB]2 [GB]2 [GB]2 (c>B) | [GB]2 [FA]2 [FA]2 (d>c) | [GB]2 [GB]2 [Fc]2 [DF]2 | %8
 [DG]6 ([GB]>[Ac]) | [Bd]2 [Bd]2 [Bd]2 ([ce]>[Bd]) | [Bd]2 [Ac]2 [Ac]2 ([Ac]>[GB]) | %11
 [FA]2 [FA]2 [FA]2 ([Bd]>[Ac]) | [GB]6 (G>A) | [GB]2 [GB]2 [GB]2 (c>B) | [GB]2 [FA]2 [FA]2 (d>c) | %15
 [GB]2 [GB]2 [DA]2 [DA]2 | [DG]6 |] %17
V:2
 G2 | x6 G2 | x6 D2 | x6 D2 | D6 G2 | x6 G2 | x6 F2 | x8 | x8 | x8 | x8 | x8 | x6 G2 | x6 G2 | %14
 x6 F2 | x8 | x6 |] %17
V:3
 (B,>C) | [G,D]2 [G,D]2 [G,D]2 (E>D) | [D,D]2 [D,D]2 [D,D]2 (A,>B,) | [D,C]2 [D,C]2 [D,C]2 [D,C]2 | %4
 [G,B,]6 (B,>C) | [G,D]2 [G,D]2 [G,D]2 (E>D) | [D,D]2 [D,D]2 [D,D]2 [D,A,]2 | %7
 [D,D]2 [D,D]2 [D,A,]2 [D,C]2 | [G,B,]6 [G,D]2 | [G,D]2 [G,D]2 [G,D]2 [G,D]2 | %10
 [D,D]2 [D,D]2 [D,D]2 [D,A,]2 | [D,D]2 [D,D]2 [D,D]2 [D,D]2 | [G,D]6 (B,>C) | %13
 [G,D]2 [G,D]2 [G,D]2 (E>D) | [D,D]2 [D,D]2 [D,D]2 (A,>D) | [G,D]2 [G,D]2 [D,C]2 [D,C]2 | %16
 [G,B,]6 |] %17
V:4
 G,2 | x6 G,2 | x6 D,2 | x8 | x6 G,2 | x6 G,2 | x8 | x8 | x8 | x8 | x8 | x8 | x6 G,2 | x6 G,2 | %14
 x6 D,2 | x8 | x6 |] %17

